X:1
T:James Gibb editions
T:Tanquam agnus - Victoria
%%score [ 1 2 3 ]
L:1/8
Q:1/4=80
M:4/4
K:F
V:1 treble-8 nm="Tenor I" snm="T I"
V:2 treble-8 nm="Tenor II" snm="T II"
V:3 bass nm="Bass" snm="B"
V:1
"^Tanquam agnus""^Tomas Luis deVictoria\n(1548-1611)" z8 | z8 | z8 | z2 A2 c2 =B2 | A4 z2 d2 | %5
w: |||ob- mu- tu-|it, ob-|
[M:4/4][K:treble-8] f2 e2 d4- | d4 z4 | z8 | z8 | z2 A4 =B2- | B2 c4 d2- | d2 e4 c2- | %12
w: mu- tu- it||||de an\-|* gu- sti\-|* a et|
 c2 d2 d2 e2- | ee e2 f2 (e2- | ed d4) ^c2 | d8 |] %16
w: * de ju- di\-|* ci- o sub la\-|* * * tus|est.|
V:2
 A6 A2 | B4 A2 F2 | G2 A2 B2 G2 | A4 z2 E2 | (F2 ED E2) D2 |[M:4/4][K:treble-8] A4 z2 A2 | %6
w: Tan quam|a- gnus co-|ram ton- den- te|se ob-|mu\- * * * tu-|it et|
 A2 =B2 c3 B | A2 c2 (=B2 AG | A=BcA B4) | A4 z2 F2 | G4 A4 | =B4 c4 | A4 =B2 B2 | c3 c c2 =B2 | %14
w: non a- pe- ru-|it os su\- * *||um de|an- gu-|sti- a|et de ju-|di- ci- o sub|
 A4 G4 | A8 |] %16
w: la- tus|est.|
V:3
 z4 D,4- | D,2 E,2 F,4 | E,2 C,2 D,2 E,2 | F,2 D,2 E,4 | z2 A,,2 C,2 =B,,2 |[M:4/4] A,,4 z2 D,2 | %6
w: Tan|* quam a-|gnus co- ram ton-|den- te se|ob- mu- tu-|it et|
 F,2 G,2 A,3 G, | F,2 E,2 (D,3 E, | F,G, A,4 ^G,2) | A,4 D,4 | E,4 F,4 | G,4 A,4 | F,4 G,2 G,2 | %13
w: non a- pe- ru-|it os su\- *||um de|an- gu-|sti- a|et de ju-|
 A,3 A, A,2 G,2 | F,4 E,4 | D,8 |] %16
w: di- ci- o sub|la- tus|est.|

